X: 1
T:Gan Ainm
R:Jig
S:Maire O'Keeffe, Kerry (fiddle)
H:Played after The Black Rogue, and followed by 96 and 97.
D:Session tape - Milltown Malbay 1991
Z:Bernie Stocks
M:6/8
L:1/8
K:A
cAA eAA|~f3 ecB|cAA eAA|{a}fec ~B3|!
cAA eAA|~f3 ece|faf {a}fec|BcB A3:|!
|:Ace ~a3|faf {a}fec|Ace ~a3|{a}fec ~B3|!
Ace ~a3|faf {a}fec|faf {a}fec|BcB A3:|!
